X: 14073
T: PEERY'S PLEASURE
C: Bob McQuillen 1 May'10
B: Bob's Note Book 14 #73
%R: reel
%D:2010
Z: 2020 John Chambers <jc:trillian.mit.edu>
M: C
L: 1/8
K: D
dB \
| AFAd BAdB | Adfd B2df | a2fa geag | fdAF E2DF |
| AFAd fdBd | Adfd g2fg | afdf dBAd | fdec d2 :|
|: fg \
| afdf geAg | fdcd BdAG | FAdB Adfa | gfed cBAG |
| FAdB AFAd | efge f2fa | geag fdAG | FAdc d2 :|"OR!" FAEA D2 |]
%%begintext align
%% Gordon Peery is a very
%% nice man, a good cook, and a great piano player.
%% He has the good fortune to live in Nelson, which is, and
%% has been, home to many fine traditional musicians.
%% I hope this tune will bring you pleasure, Gordon;
%% you sure have done that for me! Thanks, Gordon - MAC
%%endtext

%%sep 1 1 500

%%sep 1 1 500

